X:359
T:Mit di Feigelach
T:With the Birds
Z:Jack Campin, http://www.campin.me.uk/
F:Jack Campin's Nine-Note Tunebook
% last edit 25-02-2013
S:Kostakovsky, Hebrew Wedding Music, p52
M:3/4
L:1/8
Q:3/4=60
P:ABB
K:DMin
P:A
  (3AB=B|(3cdc  B2 A2|(3cdc  B2   A2 |   A3  G  (3BAG|^F4
    D2  | ^F2   F2 F2|  G3    A (3BAG|   A4       d2 | D4:|
P:B
|:(3BAG |(^F>A) G2 G2|(^F>A) G2   G2 |(T^F3  E) (3GFE| D4
[1  zD  | ^F2   F2 F2|  G3    A (3BAG|   A4       d2 | D4:|
[2  zC  |  CC   c2 B2|  A2   B2   G2 |  ^F2 G2    E2 | D4|]

